!!!COM: Haydn, Franz Joseph
!!!OTL: String Quartet in G Major
!!!OPS: Opus 54
!!!ONM: No. 1
!!!OMD: Allegretto
!!!OMV: 2
!!!SCT: H III:58
!!!SCA: Thematisch-bibliographisches Werkevererzeichnis (A. van Hoboken)
!!!YOR: Trautwein Edition
!!!ENC: Frances Bennion
!!!CDT: 1732/3/31/-1809/5/31/
!!!CNT: Oesterreich
!!!YEC: Copyright (c) 1994, 2000 Center for Computer Assisted Research in the Humanities
!!!YEM: Rights to all derivative editions reserved.
!!!YEM: Refer to licensing agreement for further details.
!!!YEN: United States of America
**kern	**kern	**kern	**kern
*k[]	*k[]	*k[]	*k[]
*C:	*C:	*C:	*C:
*clefF4	*clefC3	*clefG	*clefG
*M6/8	*M6/8	*M6/8	*M6/8
4C	8c	4c	4c
.	8c	.	.
2r	8c	2r	2r
.	8c	.	.
.	8c	.	.
.	8c	.	.
=2	=2	=2	=2
8c	8e	8g	8g
8c	8e	8g	8cc
8c	8e	8g	8cc
8c	8e	8g	8cc
8c	8e	8g	8b
8c	8e	8g	8cc
=3	=3	=3	=3
8c	8f	8g	8.dd
8c	8f	8g	.
.	.	.	16ee
8c	8f	8g	8dd
8c	8f	8g	8dd
8c	8f	8g	4r
8c	8f	8g	.
=4	=4	=4	=4
8c	8f	8g	16cc#
.	.	.	16dd
8c	8f	8g	16ee
.	.	.	16dd
8c	8f	8g	16ff
.	.	.	16ee
8c	8f	8g	8dd
8c	8f	8g	4r
8c	8f	8g	.
=5	=5	=5	=5
8B	8f	8g	8g
8B	8f	8g	8dd
8B	8f	8g	8dd
8B	8f	8g	8dd
8B	8f	8g	8cc
8B	8f	8g	8dd
=6	=6	=6	=6
8c	8e	8g	8.ee
8c	8e	8g	.
.	.	.	16ff
8c	8e	8g	8ee
8c	8e	8g	8ee
8c	8e	8g	4r
8c	8e	8g	.
=7	=7	=7	=7
8c	8e	8g	16dd#
.	.	.	16ee
8c	8e	8g	16ff
.	.	.	16ee
8c	8e	8g	16aa
.	.	.	16gg
8c	8e	8g	8gg
8c	8e	8g	4r
8c	8e	8g	.
=8	=8	=8	=8
8c	8e	8g	16bb
.	.	.	16ccc
8c	8e	8g	16ddd
.	.	.	16ccc
8c	8e	8g	16eee
.	.	.	16ccc
8c	8e	8g	8gg
8c	8e	8g	4r
8c	8e	8g	.
=9	=9	=9	=9
8E	8e	8g	8gg
8E	8g	8cc	8ccc
8E	8g	8cc	8ccc
8E	8g	8cc	8ccc
8E	8g	8b	8bb
8E	8g	8cc	8ccc
=10	=10	=10	=10
8F	[2c	4.b-	4.bb-
8F	.	.	.
8F	.	.	.
8F	.	4a	4aa
8F	8c]	.	.
8E	8g	8cc#	8gg
=11	=11	=11	=11
4D	4a	4dd	8gg
.	.	.	8ff#
8G	8d	8b	8ff
8C	8g	8cc	8ee
8F	8a	8a	8dd
8F#	8d	8a	8cc
=12	=12	=12	=12
4G	4d	8g	8b
.	.	8a	8cc
2r	4r	8a#	8cc#
.	.	8b	8dd
.	8g	8b	4r
.	8g	8b	.
=13	=13	=13	=13
8f	8g	8b	16cc#
.	.	.	16dd
8f	8g	8b	16ff
.	.	.	16ee
8f	8g	8b	16gg
.	.	.	16ff
8f	8g	8b	8aa
8f	8g	8b	8aa
8f	8g	8b	8aa
=14	=14	=14	=14
8f	8g	8b	16cc#
.	.	.	16dd
8f	8g	8b	16ff
.	.	.	16ee
8f	8g	8b	16gg
.	.	.	16ff
8f	8g	8b	4.aa
8f	8g	8b	.
8f	8g	8b	.
=15	=15	=15	=15
8f	8g	8b	16cc#
.	.	.	16dd
8f	8g	8b	16ff
.	.	.	16ee
8f	8g	8b	16gg
.	.	.	16ff
8f	8g	8b	16bb-
.	.	.	16aa
8f	8g	8b	16gg
.	.	.	16ff
8f	8g	8b	16ee
.	.	.	16dd
=16	=16	=16	=16
8f	8g	8b	16cc#
.	.	.	16dd
8f	8g	8b	16ff
.	.	.	16ee
8f	8g	8b	16gg
.	.	.	16ff
8f	8g	8b	4.aa
8f	8g	8b	.
8f	8g	8b	.
=17	=17	=17	=17
4e	2.g	[2.cc	8gg
.	.	.	16aa
.	.	.	16bb
8r	.	.	16ccc
.	.	.	16ddd
4.E	.	.	16eee
.	.	.	16fff
.	.	.	16ggg
.	.	.	16aaa
.	.	.	16bbb
.	.	.	16cccc
=18	=18	=18	=18
8F	8a	4.cc]	4.cccc
8F	8a	.	.
8F	8a	.	.
8F	8a	8cc	8aaa
8F	8a	8a	8fff
8F	8a	8f	8ddd
=19	=19	=19	=19
8G	8g	4.e	4.ccc
8G	8g	.	.
8G	8g	.	.
8G	8B	8f	8ddd
8G	8B	8e	8ccc
8G	8B	8f	8ddd
=20	=20	=20	=20
8C	8c	8e	8.ccc
8C	8c	8e	.
.	.	.	16gg
8C	8c	8e	8eee
4C	4c	8e	8ccc
.	.	4r	4r
8r	8r	.	.
=21	=21	=21	=21
8AA	8A	8A	4A
8AA	8A	8A	.
8AA	8A	8A	2r
8AA	8A	8A	.
8AA	8A	8A	.
8AA	8A	8A	.
=22	=22	=22	=22
8GG#	8B	8d	2e
8AA	8c	8c	.
8BB	8d	8B	.
4.AA	4.c	4.c	.
.	.	.	8cc
.	.	.	8a
=23	=23	=23	=23
8GG#	8B	8d	4..e
8AA	8c	8c	.
8BB	8d	8B	.
4.AA	4.c	4.c	.
.	.	.	16ee
.	.	.	16b
.	.	.	16cc
.	.	.	16g#
.	.	.	16a
=24	=24	=24	=24
8FF#	8A	8c	2d
8GG	8B	8B	.
8AA	8c	8A	.
4.GG	4.B	4B	.
.	.	.	8b
.	.	8d	8g
=25	=25	=25	=25
[2C	[2c	2.e	8e
.	.	.	8ee
.	.	.	8cc
.	.	.	8b
8C]	8c]	.	8a
8C#	8c#	.	8g
=26	=26	=26	=26
2D	4d	8d	8f#
.	.	8e	8g
.	8r	8e#	8g#
.	8F#	8f#	4a
8D	8F#	8c	.
8D	8F#	8c	8r
=27	=27	=27	=27
8D	8F#	8c	16g#
.	.	.	16a
8D	8F#	8c	16cc
.	.	.	16b
8D	8F#	8c	16dd
.	.	.	16cc
8D	8F#	8c	8ee
8D	8F#	8c	8ee
8D	8F#	8c	8ee
=28	=28	=28	=28
8D	8F#	8c	16g#
.	.	.	16a
8D	8F#	8c	16cc
.	.	.	16b
8D	8F#	8c	16dd
.	.	.	16cc
8D	8F#	8c	4.ee
8D	8F#	8c	.
8D	8F#	8c	.
=29	=29	=29	=29
8D	8F#	8c	16g#
.	.	.	16a
8D	8F#	8c	16b-
.	.	.	16b
8D	8F#	8c	16cc
.	.	.	16cc#
8D	8F#	8c	16dd
.	.	.	16dd#
8D	8F#	8c	16ee
.	.	.	16dd
8D	8F#	8c	16cc
.	.	.	16b
=30	=30	=30	=30
8D	8F#	8c	16g#
.	.	.	16a
8D	8F#	8c	16cc
.	.	.	16b
8D	8F#	8c	16dd
.	.	.	16cc
8D	8F#	8c	4.ee
8D	8F#	8c	.
8D	8F#	8c	.
=31	=31	=31	=31
2.BB	[2.G	2.d	16cc#
.	.	.	16dd
.	.	.	16gg
.	.	.	16ff#
.	.	.	16bb
.	.	.	16aa
.	.	.	16gg
.	.	.	16ff#
.	.	.	16ff
.	.	.	16ee
.	.	.	16ee-
.	.	.	16dd
=32	=32	=32	=32
4C	4G]	4G	16dd#
.	.	.	16ee
.	.	.	16ff#
.	.	.	16gg
2r	2r	2r	16dd#
.	.	.	16ee
.	.	.	16b
.	.	.	16cc
.	.	.	16g#
.	.	.	16a
.	.	.	16cc
.	.	.	16a
=33	=33	=33	=33
8D	8d	8B	4.g
8D	8B	8d	.
8D	8B	8g	.
8D	8c	8f#	4.a
8D	8c	8f#	.
8D	8c	8f#	.
=34	=34	=34	=34
4G	4B	8g	4g
.	.	8G	.
2r	2r	8G	2r
.	.	8G	.
.	.	8G	.
.	.	8G	.
=35	=35	=35	=35
4.r	2.D#	8G	2.r
.	.	8G	.
.	.	8G	.
4.BB	.	8G	.
.	.	8G	.
.	.	8G	.
=36	=36	=36	=36
[2.C	[2.E	8G	2.r
.	.	8G	.
.	.	8G	.
.	.	8G#	.
.	.	8G#	.
.	.	8G#	.
=37	=37	=37	=37
4.C]	2.E]	4.A	8g
.	.	.	8g
.	.	.	8g
4.C#	.	4.B-	8g
.	.	.	8g
.	.	.	8g
=38	=38	=38	=38
8F	8B-	8d	8f
8F	8B-	8d	8f
8F	8B-	8d	8f
8F	8c	8e-	8f
8F	8c	8e-	8g
8F	8c	8e-	8a
=39	=39	=39	=39
4BB-	4B-	8d	4b-
.	.	8B-	.
2r	2r	8B-	2r
.	.	8B-	.
.	.	8B-	.
.	.	8B-	.
=40	=40	=40	=40
4.r	2.F#	8B-	2.r
.	.	8B-	.
.	.	8B-	.
4.D	.	8B-	.
.	.	8B-	.
.	.	8B-	.
=41	=41	=41	=41
[2.E-	[2.G	8B-	2.r
.	.	8B-	.
.	.	8B-	.
.	.	8B	.
.	.	8B	.
.	.	8B	.
=42	=42	=42	=42
4.E-]	2.G]	4.c	8b-
.	.	.	8b-
.	.	.	8b-
4.E	.	4.d-	8b-
.	.	.	8b-
.	.	.	8b-
=43	=43	=43	=43
8A-	8d-	8f	8a-
8A-	8d-	8f	8a-
8A-	8d-	8f	8a-
8A-	8e-	8g-	8a-
8A-	8e-	8g-	8b-
8A-	8e-	8g-	8cc
=44	=44	=44	=44
4D-	4d-	8f	4dd-
.	.	8d-	.
2r	2r	8d-	2r
.	.	8d-	.
.	.	8d-	.
.	.	8d-	.
=45	=45	=45	=45
2.r	8d-	8e-	8g
.	8d-	8e-	8g
.	8d-	8e-	8g
.	8c	8e-	8a-
.	8c	8e-	8a-
.	8c	8e-	8a-
=46	=46	=46	=46
8c	8e-	8f#	8a
8c	8e-	8f#	8a
8c	8e-	8f#	8a
8c#	8e	8g	8b-
8c#	8e	8g	8b-
8c#	8e	8g	8b-
=47	=47	=47	=47
8d 8D	8d	8g	8d 8b
8D 8B	8g 8B	8b 8g	8dd 8d
8B 8D	8g 8B	8b 8g	8dd 8d
8B 8D	8g 8B	8g 8b	8d 8dd
8D 8B	8g 8B	8b 8g	8b 8gg
8B 8D	8g 8B	8b 8g	8gg 8b
=48	=48	=48	=48
8B 8D	8g 8B	8b 8g	8gg 8b
8DD 8BB	8g 8B	8gg 8b	8bb
8BB 8DD	8g 8B	8gg 8b	8bb
8BB 8DD	8g 8B	8gg 8b	8bb
8BB 8DD	8g 8B	8gg 8b	8ddd
8DD 8BB	8g 8B	8gg 8b	8ddd
=49	=49	=49	=49
4DD 4BB	4g 4B	4gg 4b	8ddd
.	.	.	16ccc#
.	.	.	16ddd
2r	2r	2r	16ccc
.	.	.	16bb
.	.	.	16aa
.	.	.	16gg
.	.	.	16ff#
.	.	.	16gg
.	.	.	16bb
.	.	.	16aa
=50	=50	=50	=50
2.r	2.r	2.r	16gg
.	.	.	16ff#
.	.	.	16ee
.	.	.	16dd
.	.	.	16cc
.	.	.	16b
.	.	.	16a
.	.	.	16g
.	.	.	16f#
.	.	.	16e
.	.	.	16d
.	.	.	16c#
=51	=51	=51	=51
8D	8g	8b	4.d
8D	8g	8b	.
8D	8g	8b	.
8D	8f#	8cc	4.aa
8D	8f#	8cc	.
8D	8f#	8cc	.
=52	=52	=52	=52
8GG	4g	2b	4gg
8GG	.	.	.
8GG	8r	.	8ff#
8GG	8d	.	8ff
8GG	8e	8cc	8ee
8GG	8f#	8cc	8ee-
=53	=53	=53	=53
8GG	8g	8b	4dd
8GG	8B	8d	.
8GG	8B-	8e	8cc#
8GG	4A	4f#	8cc
8GG	.	.	8a
8GG	8c	8a	8f#
=54	=54	=54	=54
8GG	8B	8g	4g
8GG	8B	8d	.
8GG	8B	8d	8b
4GG	4B	4d	8g
.	.	.	4r
8r	8r	8r	.
=55	=55	=55	=55
8EE	8E	8e	8e
8EE	8E	8e	8e
8EE	8E	8e	8e
8EE	8E	8e	8e
8EE	8E	8e	8e
8EE	8E	8e	8e
=56	=56	=56	=56
8GG#	8B	8d	2e
8AA	8c	8c	.
8BB	8d	8B	.
4AA	4.c	4.c	.
.	.	.	8cc
8r	.	.	8a
=57	=57	=57	=57
8GG#	8B	8d	4..e
8AA	8c	8c	.
8BB	8d	8B	.
4AA	4.c	4.c	.
.	.	.	16ee
.	.	.	16b
.	.	.	16cc
8r	.	.	16g#
.	.	.	16a
=58	=58	=58	=58
8FF#	8A	8c	2d
8GG	8B-	8B-	.
8AA	8c	8A	.
4GG	4.B-	4.B-	.
.	.	.	8b-
8r	.	.	8g
=59	=59	=59	=59
2.DD	8F#	8cc	4..dd
.	8G	8b-	.
.	8A	8a	.
.	4.B-	4.g	.
.	.	.	16bb-
.	.	.	16ff#
.	.	.	16gg
.	.	.	16aa
.	.	.	16gg
=60	=60	=60	=60
2.D	8F#	8cc	2dd
.	8G	8b	.
.	8A	8a	.
.	4.B	4g#	.
.	.	.	8ff
.	.	8r	8ff
=61	=61	=61	=61
4.C#	4.A	8r	8r
.	.	8a	8ee
.	.	8a	8ee
4.E	4.c#	8r	8r
.	.	8b-	8gg
.	.	8b-	8gg
=62	=62	=62	=62
4.F	4.d	8r	8r
.	.	8b	8gg#
.	.	8b	8gg#
4.F#	4.e-	8r	8r
.	.	8cc	8aa
.	.	8cc	8aa
=63	=63	=63	=63
2.G	8e	8cc	2gg
.	8d	8dd	.
.	8c	8ee	.
.	4.B	[4.ff	.
.	.	.	8ddd
.	.	.	8bb
=64	=64	=64	=64
8B	8d	8ff]	2gg
8c	8e	8ee	.
8d	8f	8b	.
4c	4.e	[4.cc	.
.	.	.	8eee
8r	.	.	8ccc
=65	=65	=65	=65
8e	8g	8cc]	2gg
8d	8f	8dd	.
8c	8e	8ee	.
4G	4.d	4.ff	.
.	.	.	8fff
8r	.	.	8ddd
=66	=66	=66	=66
4G	4d 4B	8r	8r
.	.	8ddd	8fff
8r	8r	8bb	8ddd
4G	4d 4B	8r	8r
.	.	8ddd	8fff
8r	8r	8bb	8ddd
=67	=67	=67	=67
4GG 4G	4d 4B	8.ddd	8.fff
.	.	16ccc	16eee
2r	2r	16bb	16ddd
.	.	16aa	16ccc
.	.	16gg	16bb
.	.	16ff	16aa
.	.	16ee	16gg
.	.	16dd	16ff
.	.	16cc	16ee
.	.	16b	16dd
=68	=68	=68	=68
2.r	2.r	8a	8cc
.	.	8g	8b
.	.	8f	8a
.	.	8e	8g
.	.	8d#	8f#
.	.	8d	8f
=69	=69	=69	=69
4C	8c	4c	4e
.	8c	.	.
2r	8c	2r	2r
.	8c	.	.
.	8c	.	.
.	8c	.	.
=70	=70	=70	=70
8c	8e	8g	8g
8c	8e	8g	8cc
8c	8e	8g	8cc
8c	8e	8g	8cc
8c	8e	8g	8b
8c	8e	8g	8cc
=71	=71	=71	=71
8c	8f	8g	8.dd
8c	8f	8g	.
.	.	.	16ee
8c	8f	8g	8dd
8c	8f	8g	8dd
8c	8f	8g	4r
8c	8f	8g	.
=72	=72	=72	=72
8c	8f	8g	16cc#
.	.	.	16dd
8c	8f	8g	16ee
.	.	.	16dd
8c	8f	8g	16ff
.	.	.	16ee
8c	8f	8g	8dd
8c	8f	8g	4r
8c	8f	8g	.
=73	=73	=73	=73
8B	8f	8g	8g
8B	8f	8g	8dd
8B	8f	8g	8dd
8B	8f	8g	8dd
8B	8f	8g	8cc
8B	8f	8g	8dd
=74	=74	=74	=74
8c	8e	8g	8.ee
8c	8e	8g	.
.	.	.	16ff
8c	8e	8g	8ee
8c	8e	8g	8ee
8c	8e	8g	4r
8c	8e	8g	.
=75	=75	=75	=75
8c	8e	8g	16dd#
.	.	.	16ee
8c	8e	8g	16ff
.	.	.	16ee
8c	8e	8g	16aa
.	.	.	16gg
8c	8e	8g	8gg
8c	8e	8g	4r
8c	8e	8g	.
=76	=76	=76	=76
8c	8e	8g	16bb
.	.	.	16ccc
8c	8e	8g	16ddd
.	.	.	16ccc
8c	8e	8g	16eee
.	.	.	16ccc
8c	8e	8g	8gg
8c	8e	8g	4r
8c	8e	8g	.
=77	=77	=77	=77
8E	8e	8g	8gg
8E	8g	8cc	8ccc
8E	8g	8cc	8ccc
8E	8g	8cc	8ccc
8E	8g	8b	8bb
8E	8g	8cc	8ccc
=78	=78	=78	=78
8F	4.c	4.b-	4.bb-
8F	.	.	.
8F	.	.	.
8F	4c	4a	4aa
8F	.	.	.
8E	8g	8cc#	8gg
=79	=79	=79	=79
4D	4a	4dd	8gg
.	.	.	8ff#
8G	8d	8b	8ff
8C	8g	8cc	8ee
8F	8a	8a	8dd
8F#	8d	8a	8cc
=80	=80	=80	=80
4G	4d	8g	8b
.	.	8a	8cc
2r	4r	8a#	8cc#
.	.	8b	8dd
.	8g	8b	4r
.	8g	8b	.
=81	=81	=81	=81
8f	8g	8b	16cc#
.	.	.	16dd
8f	8g	8b	16ff
.	.	.	16ee
8f	8g	8b	16gg
.	.	.	16ff
8f	8g	8b	8aa
8f	8g	8b	8aa
8f	8g	8b	8aa
=82	=82	=82	=82
8f	8g	8b	16cc#
.	.	.	16dd
8f	8g	8b	16ff
.	.	.	16ee
8f	8g	8b	16gg
.	.	.	16ff
8f	8g	8b	8aa
8f	8g	8b	4r
8f	8g	8b	.
=83	=83	=83	=83
8f	8g	8b	16cc#
.	.	.	16dd
8f	8g	8b	16ff
.	.	.	16ee
8f	8g	8b	16gg
.	.	.	16ff
8f	8g	8b	16bb-
.	.	.	16aa
8f	8g	8b	16gg
.	.	.	16ff
8f	8g	8b	16ee
.	.	.	16dd
=84	=84	=84	=84
8f	8g	8b	16cc#
.	.	.	16dd
8f	8g	8b	16ff
.	.	.	16ee
8f	8g	8b	16gg
.	.	.	16ff
8f	8g	8b	4.aa
8f	8g	8b	.
8f	8g	8b	.
=85	=85	=85	=85
4e	2.g	[2.cc	8gg
.	.	.	16aa
.	.	.	16bb
8r	.	.	16ccc
.	.	.	16ddd
4.E	.	.	16eee
.	.	.	16fff
.	.	.	16ggg
.	.	.	16aaa
.	.	.	16bbb
.	.	.	16cccc
=86	=86	=86	=86
8F	8a	4.cc]	4.cccc
8F	8a	.	.
8F	8a	.	.
8F	8a	8cc	8aaa
8F	8a	8a	8fff
8F	8a	8f	8ddd
=87	=87	=87	=87
8G	8g	4.e	4.ccc
8G	8g	.	.
8G	8g	.	.
8G	8B	8f	8ddd
8G	8B	8e	8ccc
8G	8B	8f	8ddd
=88	=88	=88	=88
4C	4c	8e	4ccc
.	.	8c	.
2r	2r	8c	2r
.	.	8c	.
.	.	8c	.
.	.	8c	.
=89	=89	=89	=89
4.r	2.G#	8c	2.r
.	.	8c	.
.	.	8c	.
4.E	.	8c	.
.	.	8c	.
.	.	8c	.
=90	=90	=90	=90
[2.F	[2.A	8c	2.r
.	.	8c	.
.	.	8c	.
.	.	8c#	.
.	.	8c#	.
.	.	8c#	.
=91	=91	=91	=91
4.F]	2.A]	4.d	8cc
.	.	.	8cc
.	.	.	8cc
4.F#	.	4.e-	8cc
.	.	.	8cc
.	.	.	8cc
=92	=92	=92	=92
8B-	8e-	8g	8b-
8B-	8e-	8g	8b-
8B-	8e-	8g	8b-
8B-	8f	8a-	8b-
8B-	8f	8a-	8cc
8B-	8f	8a-	8dd
=93	=93	=93	=93
4E-	4e-	8g	4ee-
.	.	8e-	.
2r	2r	8e-	2r
.	.	8e-	.
.	.	8e-	.
.	.	8e-	.
=94	=94	=94	=94
4.r	2.B	8e-	2.r
.	.	8e-	.
.	.	8e-	.
4.G	.	8e-	.
.	.	8e-	.
.	.	8e-	.
=95	=95	=95	=95
[2.A-	[2.c	8e-	2.r
.	.	8e-	.
.	.	8e-	.
.	.	8e	.
.	.	8e	.
.	.	8e	.
=96	=96	=96	=96
4.A-]	2.c]	4.f	8ee-
.	.	.	8ee-
.	.	.	8ee-
4.A	.	4.g-	8ee-
.	.	.	8ee-
.	.	.	8ee-
=97	=97	=97	=97
8d-	8g-	8b-	8dd-
8d-	8g-	8b-	8dd-
8d-	8g-	8b-	8dd-
8d-	8a-	8cc-	8dd-
8d-	8a-	8cc-	8ee-
8d-	8a-	8cc-	8ff
=98	=98	=98	=98
4G-	4g-	8b-	4gg-
.	.	8g-	.
2r	2r	8g-	2r
.	.	8g-	.
.	.	8g-	.
.	.	8g-	.
=99	=99	=99	=99
2.r	8g-	8a-	8cc
.	8g-	8a-	8cc
.	8g-	8a-	8cc
.	8f	8a-	8dd-
.	8f	8a-	8dd-
.	8f	8a-	8dd-
=100	=100	=100	=100
8f	8a-	8b	8dd
8f	8a-	8b	8dd
8f	8a-	8b	8dd
8f#	8a	8cc	8ee-
8f#	8a	8cc	8ee-
8f#	8a	8cc	8ee-
=101	=101	=101	=101
8g	8g	8cc	8ee
8GG 8E	8e 8c	8ee 8cc	8gg
8GG 8E	8c 8e	8ee 8cc	8gg
8E 8GG	8e 8c	8ee 8cc	8gg
8E 8GG	8e 8c	8ee 8cc	8ccc
8GG 8E	8c 8e	8ee 8cc	8ccc
=102	=102	=102	=102
8E 8GG	8e 8c	8ee 8cc	8ccc
8E 8GG	8e 8c	8ccc	8eee
8E 8GG	8c 8e	8ccc	8eee
8E 8GG	8e 8c	8ccc	8eee
8E 8GG	8c 8e	8eee	8ggg
8E 8GG	8e 8c	8eee	8ggg
=103	=103	=103	=103
4GG 4E	4e 4c	8.eee	8.ggg
.	.	16ddd	16fff
2r	2r	16ccc	16eee
.	.	16bb	16ddd
.	.	16aa	16ccc
.	.	16gg	16bb
.	.	16ff	16aa
.	.	16ee	16gg
.	.	16dd	16ff
.	.	16cc	16ee
=104	=104	=104	=104
2.r	2.r	16aa	16ccc
.	.	16gg	16bb
.	.	16ff	16aa
.	.	16ee	16gg
.	.	16dd	16ff
.	.	16cc	16ee
.	.	16b	16dd
.	.	16a	16cc
.	.	16g	16b
.	.	16f	16a
.	.	16e	16g
.	.	16d	16f
=105	=105	=105	=105
8r	2r	[2.c	4.e
8AA	.	.	.
8AA	.	.	.
8r	.	.	4.e-
8FF#	8A	.	.
8FF#	8A	.	.
=106	=106	=106	=106
8GG	8G	4.c]	2.d
8GG	8G	.	.
8GG	8G	.	.
8GG	8F	4.B	.
8GG	8F	.	.
8GG	8F	.	.
=107	=107	=107	=107
8C	4.E	4.c	4.c
8C	.	.	.
8C	.	.	.
8C	4F	4.B	16c#
.	.	.	16d
8C	.	.	16f
.	.	.	16d
8C	8D	.	16a
.	.	.	16f
=108	=108	=108	=108
8C	8G	4.c	8e
8C	8G	.	8e
8C	8G	.	8e
8C	8F	4.B	16c#
.	.	.	16d
8C	8F	.	16e
.	.	.	16d
8C	8F	.	16f
.	.	.	16d
=109	=109	=109	=109
8CC	4.E	4.c	8c
8CC	.	.	4r
8CC	.	.	.
8CC	4F	4.B	16cc#
.	.	.	16dd
8CC	.	.	16ff
.	.	.	16dd
8CC	8D	.	16aa
.	.	.	16ff
=110	=110	=110	=110
8CC	4G	4.c	16ee
.	.	.	16gg
8CC	.	.	16ff
.	.	.	16ee
8CC	8E	.	16dd
.	.	.	16cc
8CC	8D	8f	16b
.	.	.	16a
8CC	8F	8d	16g
.	.	.	16f
8CC	8F	8B	16e
.	.	.	16d
=111	=111	=111	=111
8CC	8E	8c	8c
8r	8r	8r	8r
8CC	8G	8G	8e
8CC	8E	8c	8c
8CC	8E	8c	8c
8CC	8E	8c	8c
=112	=112	=112	=112
4CC	4E	4c	4c
2r	2r	2r	2r
==	==	==	==
*-	*-	*-	*-
!!!RWG1: This file contains only pitch and duration data.
!!!RWG2: Transposing instruments are not transposed.
!!!RWG3: Spines may have incompatible meters.
!!!RWG4: Durations of rests and tied notes may be interpreted.
!!!RWG: Key is interpreted using the Humdrum key tool.
!!!GTL: 6 Quators ("Tost I + II")
!!!AFT: stage1
!!!END: 1997/04/15
!!!KEY: 3017472763
!!!EMD: Converted from MuseData to Humdrum Dec 16, 2000, by Andreas Kornstaedt using muse2kern.
!!!EMD: Manual editing by Craig Sapp, Nov 2001
